source/img/sprite/path.svg

<svg width="22" height="22" viewBox="0 0 22 22" fill="none" xmlns="http://www.w3.org/2000/svg">
<g clip-path="url(#clip0_131_2519)">
<path d="M18.1429 8.76743H12.7857C11.1091 8.76743 9.75 10.1366 9.75 11.8256C9.75 13.5145 11.1091 14.8837 12.7857 14.8837H15.1071C16.7837 14.8837 18.1429 16.2529 18.1429 17.9419C18.1429 19.6308 16.7837 21 15.1071 21H3.85714M6.71428 15.9302C6.71428 14.3406 5.4351 13.0519 3.85714 13.0519C2.27919 13.0519 1 14.3406 1 15.9302V16.0384C1 16.6695 1.1985 17.2845 1.56701 17.7949L3.8515 20.9593C3.85429 20.9632 3.86 20.9632 3.86279 20.9593L6.14727 17.7949C6.51578 17.2845 6.71428 16.6695 6.71428 16.0384V15.9302ZM4.40947 14.7454L4.42662 14.7535C4.77242 14.9183 5.02453 15.2332 5.11112 15.6086C5.19868 15.9881 5.10458 16.3904 4.86077 16.6929C4.61964 16.9921 4.25485 17.1691 3.87232 17.1691H3.84197C3.45944 17.1691 3.09464 16.9921 2.85352 16.6929C2.60971 16.3904 2.51561 15.9881 2.60316 15.6086C2.68975 15.2332 2.94186 14.9183 3.28767 14.7535L3.30482 14.7454C3.65446 14.5788 4.05982 14.5788 4.40947 14.7454ZM21 3.89849C21 2.30887 19.7208 1 18.1429 1C16.5649 1 15.2857 2.30887 15.2857 3.89849C15.2857 4.52339 15.4857 5.1384 15.8561 5.63972L18.1372 8.72766C18.14 8.73147 18.1457 8.73147 18.1485 8.72766L20.4297 5.63972C20.8 5.1384 21 4.52339 21 3.89849ZM18.6875 2.65136L18.7262 2.66941C19.0631 2.82627 19.3099 3.13018 19.3957 3.4939C19.4838 3.86694 19.3925 4.25998 19.1492 4.55491L19.137 4.56971C18.8999 4.85725 18.548 5.02359 18.1769 5.02359H18.1088C17.7377 5.02359 17.3858 4.85725 17.1487 4.56971L17.1365 4.55491C16.8932 4.25998 16.8019 3.86694 16.89 3.4939C16.9758 3.13018 17.2226 2.82627 17.5595 2.66941L17.5983 2.65136C17.9438 2.49048 18.342 2.49048 18.6875 2.65136Z" stroke="#0266C1" stroke-linecap="round"/>
</g>
<defs>
<clipPath id="clip0_131_2519">
<rect width="22" height="22" fill="white"/>
</clipPath>
</defs>
</svg>

<svg viewBox="0 0 22 22" fill="none" xmlns="http://www.w3.org/2000/svg"><g clip-path="url(#a)"><path d="M18.14 8.77h-5.35a3.05 3.05 0 0 0-3.04 3.06 3.05 3.05 0 0 0 3.04 3.05h2.32a3.05 3.05 0 0 1 3.03 3.06 3.05 3.05 0 0 1-3.03 3.06h-11.25m2.85-5.07a2.87 2.87 0 0 0-2.85-2.88 2.87 2.87 0 0 0-2.86 2.88v.1a3 3 0 0 0 .57 1.76l2.28 3.17h.01l2.29-3.17a3 3 0 0 0 .56-1.75v-.11Zm-2.3-1.18h.02a1.26 1.26 0 0 1 .43 1.94c-.24.3-.6.48-.99.48h-.03a1.27 1.27 0 0 1-.55-2.42h.01c.35-.17.76-.17 1.1 0Zm16.59-10.85c0-1.6-1.28-2.9-2.86-2.9a2.89 2.89 0 0 0-2.85 2.9c0 .62.2 1.24.57 1.74l2.28 3.09s0 0 0 0l2.29-3.09c.37-.5.57-1.12.57-1.74Zm-2.31-1.25.04.02a1.22 1.22 0 0 1 .42 1.88l-.01.02c-.24.29-.6.45-.96.45h-.07c-.37 0-.72-.16-.96-.45l-.01-.02a1.23 1.23 0 0 1 .42-1.88l.04-.02a1.3 1.3 0 0 1 1.09 0Z" stroke="#0266C1" stroke-linecap="round"/></g><defs><clipPath id="a"><path fill="#fff" d="M0 0h22v22h-22z"/></clipPath></defs></svg>
